X:1
T:Galop Nantais
C:Traditionnel, abc file by Bernard Loffet
L:1/8
Q:380
M:2/2
K:C
|:[e2C,2][c2C,2][cC,]B[cC,]d|[c2G,2][B2G,2][BG,]A[BG,]c|[B2D,2][A2D,2][AD,]G[AD,]B|[A2G,2][G2G,2][G2G,2]G,2|[e2C,2][c2C,2][cC,]B[cC,]d|[c2G,2][B2G,2][B2G,2][G2G,2]| \
[A2D,2][A2D,2][d2D,2][d2D,2]|1[G2G,2]G,2G,2G,2:|2[G2G,2]G,2G,2zG|z2[A2D,2D2]zz2A|z2[B2G,2G,2]zz2B|z2[c2C,2C2]c[cC,C]dc|z2[B2G,2G,2]zz2G|z2[A2D,2D2]zz2A| \
z2[B2G,2G,2]zz2B|z2[c2C,2C2]c[cC,C]BA|z2[d2D,2D2]zz2[dD,]|:z2[dG,]B[GG,][d2G,2][dG,]|z2[dG,]B[GG,][d2G,2][GG,]|z2[A2D,2][AD,][d2D,2][dD,]|z2[B2G,2]G,[G2G,2][dG,]| \
z2[dG,]B[GG,][d2G,2][dG,]|z2[dG,]B[GG,][d2G,2][GG,]|z2[A2D,2][AD,][d2D,2][dD,]|1z2[G2G,2]G,G,2[dG,]:|2z2[G2G,2G,2]z4| \
Z:Created with TablEdit http://www.tabledit.com/, abc file by Bernard Loffet
